file/bayer.svg

<svg clip-rule="evenodd" fill-rule="evenodd" stroke-linejoin="round" stroke-miterlimit="1.41421" viewBox="0 0 560 400" xmlns="http://www.w3.org/2000/svg"><g fill-rule="nonzero" transform="matrix(3.94737 0 0 3.94737 130 50)"><g fill="#00354f"><path d="m35.744 11.29h4.379c.483 0 .877-.393.877-.876 0-.482-.394-.876-.877-.876h-4.379zm0 4.255h4.509c.552 0 .998-.448.998-1.003 0-.553-.446-1.001-.998-1.001h-4.509zm7.041-3.225c.595.58.964 1.389.964 2.286 0 1.759-1.427 3.189-3.187 3.192h-7.322v-10.515l7.202.001c1.69.003 3.059 1.375 3.059 3.066.001.75-.269 1.437-.716 1.97z"/><path d="m44.469 30.319h-2.687l-.846-1.752h-5.882l-.847 1.752h-2.687l5.255-10.511h2.437zm-6.474-7.822-1.846 3.818h3.692z"/><path d="m31.413 32.572h3.011l3.571 4.787 3.57-4.787h3.012l-5.33 6.844v3.668h-2.504v-3.668z"/><path d="m55.502 32.572v2.253h-7.008v1.752l6.757-.001v2.252h-6.757v2.003h7.008v2.253h-9.511v-10.512z"/><path d="m63.234 39.079h-1.878v4.004h-2.503v-10.511h6.393c1.792.006 3.245 1.462 3.245 3.257 0 1.481-.98 2.73-2.336 3.123l3.085 4.132h-3.004zm1.757-4.254h-3.635v2.002h3.635c.55-.003.994-.451.994-1 .001-.551-.444-.999-.994-1.002z"/><path d="m32.581 43.084h-2.687l-.846-1.752h-5.882l-.847 1.752h-2.686l5.255-10.512h2.437zm-6.474-7.823-1.847 3.818h3.692z"/><path d="m10.234 36.584h4.378c.484 0 .877-.393.877-.876s-.393-.876-.877-.876h-4.378zm0 4.255h4.507c.553 0 .998-.449.998-1.003 0-.552-.445-1.001-.998-1.001h-4.508v2.004zm7.04-3.225c.595.58.965 1.39.965 2.286 0 1.76-1.427 3.19-3.186 3.193h-7.323v-10.515h7.202c1.69.003 3.06 1.375 3.06 3.066-.001.75-.271 1.437-.718 1.97z"/><path d="m42.751 45.336v2.253h-7.008v1.752l6.757-.001v2.252h-6.757v2.003h7.008v2.252h-9.511v-10.511z"/><path d="m40.994 61.606c0-.551-.443-.997-.992-1.002h-4.26v2.001h4.26c.55-.005.992-.452.992-.999zm-7.754 7.256v-10.512h7.021c1.789.012 3.234 1.466 3.234 3.258 0 1.363-.836 2.531-2.024 3.018l3.157 4.235h-3.004l-3.004-4.003h-2.878v4.003h-2.502z"/></g><g><path d="m75.925 35.646c-1.216-19.89-17.729-35.646-37.925-35.646s-36.709 15.756-37.925 35.646c.049.798.12 1.589.218 2.373.821 6.616 3.343 12.703 7.114 17.813 6.92 9.377 18.046 15.46 30.594 15.46-17.566 0-31.996-13.675-33.207-30.937-.056-.779-.086-1.563-.086-2.355s.03-1.576.084-2.354c1.212-17.263 15.642-30.938 33.208-30.938 12.551 0 23.678 6.086 30.597 15.467 3.775 5.118 6.295 11.217 7.111 17.844.095.772.17 1.55.218 2.336.047-.78.074-1.564.074-2.355s-.027-1.575-.075-2.354" fill="#56d400"/><path d="m.075 40.354c1.216 19.89 17.729 35.646 37.925 35.646s36.709-15.756 37.925-35.646c-.049-.798-.12-1.589-.218-2.373-.821-6.616-3.343-12.703-7.114-17.813-6.919-9.377-18.045-15.46-30.593-15.46 17.565 0 31.996 13.675 33.208 30.937.054.778.084 1.563.084 2.354 0 .792-.03 1.576-.084 2.354-1.212 17.264-15.642 30.939-33.208 30.939-12.551 0-23.678-6.086-30.597-15.467-3.775-5.118-6.295-11.217-7.111-17.843-.095-.772-.17-1.55-.218-2.336-.047.779-.074 1.563-.074 2.354s.027 1.575.075 2.354" fill="#00bdff"/></g></g></svg>

<?xml version="1.0" encoding="UTF-8" standalone="no"?>
<!DOCTYPE svg PUBLIC "-//W3C//DTD SVG 1.1//EN" "http://www.w3.org/Graphics/SVG/1.1/DTD/svg11.dtd">
<svg width="100%" height="100%" viewBox="0 0 560 400" version="1.1" xmlns="http://www.w3.org/2000/svg" xmlns:xlink="http://www.w3.org/1999/xlink" xml:space="preserve" xmlns:serif="http://www.serif.com/" style="fill-rule:evenodd;clip-rule:evenodd;stroke-linejoin:round;stroke-miterlimit:1.41421;">
    <g id="g4137" transform="matrix(3.94737,0,0,3.94737,130,50)">
        <g id="g4139">
            <path id="path4141" d="M35.744,11.29L40.123,11.29C40.606,11.29 41,10.897 41,10.414C41,9.932 40.606,9.538 40.123,9.538L35.744,9.538L35.744,11.29ZM35.744,15.545L40.253,15.545C40.805,15.545 41.251,15.097 41.251,14.542C41.251,13.989 40.805,13.541 40.253,13.541L35.744,13.541L35.744,15.545ZM42.785,12.32C43.38,12.9 43.749,13.709 43.749,14.606C43.749,16.365 42.322,17.795 40.562,17.798L33.24,17.798L33.24,7.283L40.442,7.284C42.132,7.287 43.501,8.659 43.501,10.35C43.502,11.1 43.232,11.787 42.785,12.32Z" style="fill:rgb(0,53,79);fill-rule:nonzero;"/>
            <path id="path4143" d="M44.469,30.319L41.782,30.319L40.936,28.567L35.054,28.567L34.207,30.319L31.52,30.319L36.775,19.808L39.212,19.808L44.469,30.319ZM37.995,22.497L36.149,26.315L39.841,26.315L37.995,22.497Z" style="fill:rgb(0,53,79);fill-rule:nonzero;"/>
            <path id="polygon4145" d="M31.413,32.572L34.424,32.572L37.995,37.359L41.565,32.572L44.577,32.572L39.247,39.416L39.247,43.084L36.743,43.084L36.743,39.416L31.413,32.572Z" style="fill:rgb(0,53,79);fill-rule:nonzero;"/>
            <path id="polygon4147" d="M55.502,32.572L55.502,34.825L48.494,34.825L48.494,36.577L55.251,36.576L55.251,38.828L48.494,38.828L48.494,40.831L55.502,40.831L55.502,43.084L45.991,43.084L45.991,32.572L55.502,32.572Z" style="fill:rgb(0,53,79);fill-rule:nonzero;"/>
            <path id="path4149" d="M63.234,39.079L61.356,39.079L61.356,43.083L58.853,43.083L58.853,32.572L65.246,32.572C67.038,32.578 68.491,34.034 68.491,35.829C68.491,37.31 67.511,38.559 66.155,38.952L69.24,43.084L66.236,43.084L63.234,39.079ZM64.991,34.825L61.356,34.825L61.356,36.827L64.991,36.827C65.541,36.824 65.985,36.376 65.985,35.827C65.986,35.276 65.541,34.828 64.991,34.825Z" style="fill:rgb(0,53,79);fill-rule:nonzero;"/>
            <path id="path4151" d="M32.581,43.084L29.894,43.084L29.048,41.332L23.166,41.332L22.319,43.084L19.633,43.084L24.888,32.572L27.325,32.572L32.581,43.084ZM26.107,35.261L24.26,39.079L27.952,39.079L26.107,35.261Z" style="fill:rgb(0,53,79);fill-rule:nonzero;"/>
            <path id="path4153" d="M10.234,36.584L14.612,36.584C15.096,36.584 15.489,36.191 15.489,35.708C15.489,35.225 15.096,34.832 14.612,34.832L10.234,34.832L10.234,36.584ZM10.234,40.839L14.741,40.839C15.294,40.839 15.739,40.39 15.739,39.836C15.739,39.284 15.294,38.835 14.741,38.835L10.233,38.835L10.233,40.839L10.234,40.839ZM17.274,37.614C17.869,38.194 18.239,39.004 18.239,39.9C18.239,41.66 16.812,43.09 15.053,43.093L7.73,43.093L7.73,32.578L14.932,32.578C16.622,32.581 17.992,33.953 17.992,35.644C17.991,36.394 17.721,37.081 17.274,37.614Z" style="fill:rgb(0,53,79);fill-rule:nonzero;"/>
            <path id="polygon4155" d="M42.751,45.336L42.751,47.589L35.743,47.589L35.743,49.341L42.5,49.34L42.5,51.592L35.743,51.592L35.743,53.595L42.751,53.595L42.751,55.847L33.24,55.847L33.24,45.336L42.751,45.336Z" style="fill:rgb(0,53,79);fill-rule:nonzero;"/>
            <path id="path4157" d="M40.994,61.606C40.994,61.055 40.551,60.609 40.002,60.604L35.742,60.604L35.742,62.605L40.002,62.605C40.552,62.6 40.994,62.153 40.994,61.606ZM33.24,68.862L33.24,58.35L40.261,58.35C42.05,58.362 43.495,59.816 43.495,61.608C43.495,62.971 42.659,64.139 41.471,64.626L44.628,68.861L41.624,68.861L38.62,64.858L35.742,64.858L35.742,68.861L33.24,68.861L33.24,68.862Z" style="fill:rgb(0,53,79);fill-rule:nonzero;"/>
        </g>
        <g id="g4159">
            <path id="path4161" d="M75.925,35.646C74.709,15.756 58.196,0 38,0C17.804,0 1.291,15.756 0.075,35.646C0.124,36.444 0.195,37.235 0.293,38.019C1.114,44.635 3.636,50.722 7.407,55.832C14.327,65.209 25.453,71.292 38.001,71.292C20.435,71.292 6.005,57.617 4.794,40.355C4.738,39.576 4.708,38.792 4.708,38C4.708,37.208 4.738,36.424 4.792,35.646C6.004,18.383 20.434,4.708 38,4.708C50.551,4.708 61.678,10.794 68.597,20.175C72.372,25.293 74.892,31.392 75.708,38.019C75.803,38.791 75.878,39.569 75.926,40.355C75.973,39.575 76,38.791 76,38C76,37.209 75.973,36.425 75.925,35.646" style="fill:rgb(86,212,0);fill-rule:nonzero;"/>
            <path id="path4163" d="M0.075,40.354C1.291,60.244 17.804,76 38,76C58.196,76 74.709,60.244 75.925,40.354C75.876,39.556 75.805,38.765 75.707,37.981C74.886,31.365 72.364,25.278 68.593,20.168C61.674,10.791 50.548,4.708 38,4.708C55.565,4.708 69.996,18.383 71.208,35.645C71.262,36.423 71.292,37.208 71.292,37.999C71.292,38.791 71.262,39.575 71.208,40.353C69.996,57.617 55.566,71.292 38,71.292C25.449,71.292 14.322,65.206 7.403,55.825C3.628,50.707 1.108,44.608 0.292,37.982C0.197,37.21 0.122,36.432 0.074,35.646C0.027,36.425 0,37.209 0,38C0,38.791 0.027,39.575 0.075,40.354" style="fill:rgb(0,189,255);fill-rule:nonzero;"/>
        </g>
    </g>
</svg>
